packages/ui-icons/svg/Line/review-screen.svg

<svg viewBox="0 0 1920 1920" xmlns="http://www.w3.org/2000/svg">
    <g fill-rule="evenodd">
        <path fill-rule="nonzero" d="M0 53v1813.33h1386.67v-320H1280v213.34H106.667V159.667H1280V373h106.67V53z"/>
        <path d="M1226.67 1439.67c113.33 0 217.48-39.28 299.6-104.96l302.37 302.65c20.82 20.84 54.59 20.85 75.42.04 20.84-20.82 20.86-54.59.04-75.43l-302.41-302.68c65.7-82.12 104.98-186.29 104.98-299.623 0-265.097-214.91-480-480-480-265.1 0-480.003 214.903-480.003 480 0 265.093 214.903 480.003 480.003 480.003Zm0-106.67c206.18 0 373.33-167.15 373.33-373.333 0-206.187-167.15-373.334-373.33-373.334-206.19 0-373.337 167.147-373.337 373.334 0 206.183 167.147 373.333 373.337 373.333Z"/>
    </g>
</svg>

<svg viewBox="0 0 1920 1920" version="1.1" xmlns="http://www.w3.org/2000/svg">
    <g stroke="none" stroke-width="1" fill-rule="evenodd">
        <path fill-rule="nonzero" d="M0 53L0 1866.33 1386.67 1866.33 1386.67 1546.33 1280 1546.33 1280 1759.67 106.667 1759.67 106.667 159.667 1280 159.667 1280 373 1386.67 373 1386.67 53z"/>
        <path d="M1226.67,1439.67 C1340,1439.67 1444.15,1400.39 1526.27,1334.71 L1828.64,1637.36 C1849.46,1658.2 1883.23,1658.21 1904.06,1637.4 C1924.9,1616.58 1924.92,1582.81 1904.1,1561.97 L1601.69,1259.29 C1667.39,1177.17 1706.67,1073 1706.67,959.667 C1706.67,694.57 1491.76,479.667 1226.67,479.667 C961.57,479.667 746.667,694.57 746.667,959.667 C746.667,1224.76 961.57,1439.67 1226.67,1439.67 Z M1226.67,1333 C1432.85,1333 1600,1165.85 1600,959.667 C1600,753.48 1432.85,586.333 1226.67,586.333 C1020.48,586.333 853.333,753.48 853.333,959.667 C853.333,1165.85 1020.48,1333 1226.67,1333 Z"/>
    </g>
</svg>
